package/icons/severe-thunderstorm.svg

<?xml version="1.0" encoding="UTF-8"?>
<svg xmlns="http://www.w3.org/2000/svg" version="1.1" width="64" height="64" viewbox="0 0 64 64">
  <defs>
    <filter id="blur" width="200%" height="200%">
      <feGaussianBlur in="SourceAlpha" stdDeviation="3" />
      <feOffset dx="0" dy="4" result="offsetblur" />
      <feComponentTransfer>
        <feFuncA type="linear" slope="0.05" />
      </feComponentTransfer>
      <feMerge>
        <feMergeNode />
        <feMergeNode in="SourceGraphic" />
      </feMerge>
    </filter>
  </defs>
  <g filter="url(#blur)" id="thunder">
    <g transform="translate(20,10)">
      <g class="am-weather-cloud-1">
        <path d="M47.7,35.4     c0-4.6-3.7-8.2-8.2-8.2c-1,0-1.9,0.2-2.8,0.5c-0.3-3.4-3.1-6.2-6.6-6.2c-3.7,0-6.7,3-6.7,6.7c0,0.8,0.2,1.6,0.4,2.3     c-0.3-0.1-0.7-0.1-1-0.1c-3.7,0-6.7,3-6.7,6.7c0,3.6,2.9,6.6,6.5,6.7l17.2,0C44.2,43.3,47.7,39.8,47.7,35.4z" fill="#666" stroke="white" stroke-linejoin="round" stroke-width="1.2" transform="translate(-10,-6), scale(0.6)" />
        <animateTransform attributeName="transform" type="translate" values="-5.0,0.0;10.0,0.0;-5.0,0.0" keyTimes="0.0000;0.5000;1.0000" dur="7s" repeatCount="indefinite" calcMode="linear" />
      </g>
      <g>
        <path d="M47.7,35.4     c0-4.6-3.7-8.2-8.2-8.2c-1,0-1.9,0.2-2.8,0.5c-0.3-3.4-3.1-6.2-6.6-6.2c-3.7,0-6.7,3-6.7,6.7c0,0.8,0.2,1.6,0.4,2.3     c-0.3-0.1-0.7-0.1-1-0.1c-3.7,0-6.7,3-6.7,6.7c0,3.6,2.9,6.6,6.5,6.7l17.2,0C44.2,43.3,47.7,39.8,47.7,35.4z" fill="#333" stroke="white" stroke-linejoin="round" stroke-width="1.2" transform="translate(-20,-11)" />
      </g>
      <g transform="translate(-9,28), scale(1.2)">
        <g class="am-weather-stroke">
          <polygon fill="orange" stroke="white" stroke-width="1" points="14.3,-2.9 20.5,-2.9 16.4,4.3 20.3,4.3 11.5,14.6 14.9,6.9 11.1,6.9" />
          <animateTransform attributeName="transform" type="translate" values="0.0,0.0;0.3,0.0;0.0,0.0;0.5,0.4;0.0,0.0;0.3,0.0;0.0,0.0;0.3,0.0;0.0,0.0;0.3,0.0;0.0,0.0;1.0,0.0;0.0,0.0;-1.0,0.0;0.0,0.0;0.0,0.0;-1.0,5.0;0.0,0.0" keyTimes="0.0000;0.0200;0.0400;0.0600;0.0800;0.1000;0.1200;0.1400;0.1600;0.1800;0.2000;0.2200;0.2400;0.2600;0.2800;0.4000;0.6500;1.0000" dur="1.11s" repeatCount="indefinite" calcMode="linear" />
          <animate attributeName="fill" values="black;black;black;black;black;black;black;black;black;black;black;black;black;black;black;orange;orange;white;black" keyTimes="0.0000;0.0200;0.0400;0.0600;0.0800;0.1000;0.1200;0.1400;0.1600;0.1800;0.2000;0.2200;0.2400;0.2600;0.2800;0.4000;0.6100;0.6500;1.0000" dur="1.11s" repeatCount="indefinite" calcMode="linear" />
        </g>
      </g>
      <g id="error" transform="translate(23, 25)">
        <g>
          <path d="M7.77911118,2.90598694 L1.78786622,13.0231308 L1.78786622,13.0231308 C1.2250391,13.9735514 1.53924574,15.2002811 2.48966639,15.7631082 C2.79820001,15.9458179 3.15018031,16.0422194 3.50875504,16.0422194 L15.491245,16.0422194 L15.491245,16.0422194 C16.5958145,16.0422194 17.491245,15.1467889 17.491245,14.0422194 C17.491245,13.6836447 17.3948435,13.3316644 17.2121338,13.0231308 L11.2208888,2.90598694 L11.2208888,2.90598694 C10.6580617,1.95556629 9.431332,1.64135966 8.48091135,2.20418678 C8.19172737,2.37543789 7.95036229,2.61680296 7.77911118,2.90598694 Z" id="Shape" fill="#CC0000" fill-rule="nonzero" />
          <animate attributeName="fill" values="#cc0000;#ff0000;#cc0000" keyTimes="0.0000;0.5000;1.0000" dur="1s" repeatCount="indefinite" calcMode="linear" />
        </g>
        <path d="M9.5,10.5 L9.5,5.5" id="Line" stroke="#FFFFFF" stroke-width="1.5" stroke-linecap="round" />
        <circle id="Oval" fill="#FFFFFF" cx="9.5" cy="13" r="1" />
      </g>
    </g>
  </g>
</svg>

<?xml version="1.0" encoding="UTF-8"?>
<!-- (c) ammap.com | SVG weather icons -->
<!-- Severe Thunderstorm | Contributed by hsoJ95 on GitHub: https://github.com/hsoj95 -->
<svg width="56" height="48" version="1.1" xmlns="http://www.w3.org/2000/svg">
  <defs>
    <filter id="blur" x="-.17571" y="-.19575" width="1.3379" height="1.4959">
      <feGaussianBlur in="SourceAlpha" stdDeviation="3" />
      <feOffset dx="0" dy="4" result="offsetblur" />
      <feComponentTransfer>
        <feFuncA slope="0.05" type="linear" />
      </feComponentTransfer>
      <feMerge>
        <feMergeNode />
        <feMergeNode in="SourceGraphic" />
      </feMerge>
    </filter>
  </defs>
  <g transform="translate(16,-2)" filter="url(#blur)">
    <g class="am-weather-cloud-1d">
      <path transform="matrix(.6 0 0 .6 -10 -6)"
        d="m47.7 35.4c0-4.6-3.7-8.2-8.2-8.2-1 0-1.9 0.2-2.8 0.5-0.3-3.4-3.1-6.2-6.6-6.2-3.7 0-6.7 3-6.7 6.7 0 0.8 0.2 1.6 0.4 2.3-0.3-0.1-0.7-0.1-1-0.1-3.7 0-6.7 3-6.7 6.7 0 3.6 2.9 6.6 6.5 6.7h17.2c4.4-0.5 7.9-4 7.9-8.4z"
        fill="#666" stroke="#fff" stroke-linejoin="round" stroke-width="1.2" />
    </g>
    <g class="am-weather-cloud-3d">
      <path transform="translate(-20,-11)"
        d="m47.7 35.4c0-4.6-3.7-8.2-8.2-8.2-1 0-1.9 0.2-2.8 0.5-0.3-3.4-3.1-6.2-6.6-6.2-3.7 0-6.7 3-6.7 6.7 0 0.8 0.2 1.6 0.4 2.3-0.3-0.1-0.7-0.1-1-0.1-3.7 0-6.7 3-6.7 6.7 0 3.6 2.9 6.6 6.5 6.7h17.2c4.4-0.5 7.9-4 7.9-8.4z"
        fill="#333" stroke="#fff" stroke-linejoin="round" stroke-width="1.2" />
    </g>
      <g class="am-weather-lightning" transform="matrix(1.2,0,0,1.2,-4,28)">
        <polygon class="am-weather-stroke" points="11.1 6.9 14.3 -2.9 20.5 -2.9 16.4 4.3 20.3 4.3 11.5 14.6 14.9 6.9"
          fill="#ffa500" stroke="#fff" />
      </g>
    <g class="warning" transform="translate(20,30)">
      <path
        d="m7.7791 2.906-5.9912 10.117c-0.56283 0.95042-0.24862 2.1772 0.7018 2.74 0.30853 0.18271 0.66051 0.27911 1.0191 0.27911h11.982c1.1046 0 2-0.89543 2-2 0-0.35857-0.0964-0.71056-0.27911-1.0191l-5.9912-10.117c-0.56283-0.95042-1.7896-1.2646-2.74-0.7018-0.28918 0.17125-0.53055 0.41262-0.7018 0.7018z"
        fill="#c00" />
      <path d="m9.5 10.5v-5" stroke="#fff" stroke-linecap="round" stroke-width="1.5" />
      <circle cx="9.5" cy="13" r="1" fill="#fff" />
    </g>
  </g>
</svg>
